status/symbolic/battery-caution-symbolic.svg

<?xml version="1.0" encoding="UTF-8" standalone="no"?>
<svg
   xmlns:dc="http://purl.org/dc/elements/1.1/"
   xmlns:cc="http://creativecommons.org/ns#"
   xmlns:rdf="http://www.w3.org/1999/02/22-rdf-syntax-ns#"
   xmlns:svg="http://www.w3.org/2000/svg"
   xmlns="http://www.w3.org/2000/svg"
   version="1.1"
   width="16"
   height="16"
   id="svg3007">
  <defs
     id="defs3009" />
  <metadata
     id="metadata3012">
    <rdf:RDF>
      <cc:Work
         rdf:about="">
        <dc:format>image/svg+xml</dc:format>
        <dc:type
           rdf:resource="http://purl.org/dc/dcmitype/StillImage" />
        <dc:title />
      </cc:Work>
    </rdf:RDF>
  </metadata>
  <g
     id="layer1">
    <path
       d="M 1,3 C 0.446,3 0,3.446 0,4 l 0,8 c 0,0.554 0.446,1 1,1 l 12,0 c 0.554,0 1,-0.446 1,-1 l 0,-2 1,0 c 0.554,0 1,-0.446 1,-1 L 16,7 C 16,6.446 15.554,6 15,6 L 14,6 14,4 C 14,3.446 13.554,3 13,3 z m 0.5,1 11,0 C 12.777,4 13,4.223 13,4.5 l 0,7 c 0,0.277 -0.223,0.5 -0.5,0.5 l -11,0 C 1.223,12 1,11.777 1,11.5 l 0,-7 C 1,4.223 1.223,4 1.5,4 z M 14,7 14.5,7 C 14.777,7 15,7.223 15,7.5 l 0,1 C 15,8.777 14.777,9 14.5,9 L 14,9 z"
       id="path13417"
       style="color:#bebebe;fill:#bebebe;fill-opacity:1;fill-rule:nonzero;stroke:none;stroke-width:1;marker:none;visibility:visible;display:inline;overflow:visible;enable-background:accumulate" />
    <path
       d="M 2.25,5 C 2.1115,5 2,5.1115 2,5.25 l 0,5.5 C 2,10.8885 2.1115,11 2.25,11 l 1.5,0 C 3.8885,11 4,10.8885 4,10.75 L 4,5.25 C 4,5.1115 3.8885,5 3.75,5 z"
       id="path13466"
       class="warning"
       style="color:#bebebe;fill:#fbc02d;fill-opacity:1;fill-rule:nonzero;stroke:none;stroke-width:1;marker:none;visibility:visible;display:inline;overflow:visible;enable-background:accumulate" />
  </g>
</svg>

<svg xmlns="http://www.w3.org/2000/svg" width="16" height="16"><g color="#bebebe"><path d="M1 3c-.554 0-1 .446-1 1v8c0 .554.446 1 1 1h12c.554 0 1-.446 1-1v-2h1c.554 0 1-.446 1-1V7c0-.554-.446-1-1-1h-1V4c0-.554-.446-1-1-1zm.5 1h11a.5.5 0 0 1 .5.5v7a.5.5 0 0 1-.5.5h-11a.5.5 0 0 1-.5-.5v-7a.5.5 0 0 1 .5-.5zM14 7h.5a.5.5 0 0 1 .5.5v1a.5.5 0 0 1-.5.5H14z" fill="#bebebe" overflow="visible"/><path d="M2.25 5a.25.25 0 0 0-.25.25v5.5c0 .14.11.25.25.25h1.5c.14 0 .25-.11.25-.25v-5.5A.25.25 0 0 0 3.75 5z" class="warning" fill="#fbc02d" overflow="visible"/></g></svg>
